public/logos/1867/KP.svg

<svg xmlns="http://www.w3.org/2000/svg" xmlns:xlink="http://www.w3.org/1999/xlink" viewBox="0 0 283.5 283.5"><symbol id="c" viewBox="-25.5 -25.5 51 51"><circle r="25.5" fill="#ffed2b"/><path d="M-1.4 8.5v17h2.8v-17h-2.8zm5.7-17v-16.6c1 .2 1.9.4 2.8.6v16H4.3zm-5.7 0v-17h2.8v17h-2.8zm8.5 17v16c-.9.3-1.9.5-2.8.6V8.5h2.8zm-14.2-17v-16c.9-.3 1.9-.5 2.8-.6v16.6h-2.8zm2.8 17v16.6c-1-.2-1.9-.4-2.8-.6v-16h2.8z" fill="#0095da"/><path d="M-6.8-3.7h.7v6.9h-.7v1.5h3.7V3.2h-.6v-6.9h.5v-1.5h-3.5v1.5zm4.3 0h.5L-3.5 0l1.7 3.2h-.6v1.5H.5V3.2h-.6L-1.4.7.3-3.7h.6v-1.5h-3.4v1.5zm3.6 0h.7v6.9h-.7v1.5h3.2C6.6 4.6 8 3.5 8 1.5 8-.4 6.9-1.6 4.2-1.6v-2.1H5v-1.5H1.1v1.5zm3 3.6c.6 0 1.3.1 1.3 1.6 0 1.4-.7 1.6-1.3 1.6V-.1z"/></symbol><defs><path id="a" d="M280.6 141.7c0 76.7-62.2 138.9-138.9 138.9S2.8 218.4 2.8 141.7 65 2.8 141.7 2.8 280.6 65 280.6 141.7z"/></defs><clipPath id="b"><use xlink:href="#a" overflow="visible"/></clipPath><g clip-path="url(#b)"><use xlink:href="#c" width="51" height="51" x="-25.5" y="-25.5" transform="matrix(7.7777 0 0 -7.7777 139.52 139.779)" overflow="visible"/></g><use xlink:href="#a" overflow="visible" fill="none" stroke="#f3eebf" stroke-miterlimit="10"/></svg>

<?xml version="1.0" encoding="utf-8"?>
<!-- Generator: Adobe Illustrator 25.0.1, SVG Export Plug-In . SVG Version: 6.00 Build 0)  -->
<svg version="1.1" id="Layer_1" xmlns="http://www.w3.org/2000/svg" xmlns:xlink="http://www.w3.org/1999/xlink" x="0px" y="0px"
	 viewBox="0 0 283.5 283.5" style="enable-background:new 0 0 283.5 283.5;" xml:space="preserve">
<style type="text/css">
	.st0{fill:#FFED2B;}
	.st1{fill:#0095DA;}
</style>
<symbol  id="Nouveau_symbole_15" viewBox="-25.5 -25.5 51 51">
	<circle class="st0" cx="0" cy="0" r="25.5"/>
	<path class="st1" d="M-1.4,8.5v17c0.5,0,0.9,0,1.4,0c0.5,0,0.9,0,1.4,0v-17H-1.4z M4.3-8.5v-16.6c1,0.2,1.9,0.4,2.8,0.6v16H4.3z
		 M-1.4-8.5v-17c0.5,0,0.9,0,1.4,0c0.5,0,0.9,0,1.4,0v17H-1.4z M7.1,8.5v16c-0.9,0.3-1.9,0.5-2.8,0.6V8.5H7.1z M-7.1-8.5v-16
		c0.9-0.3,1.9-0.5,2.8-0.6v16.6H-7.1z M-4.3,8.5v16.6c-1-0.2-1.9-0.4-2.8-0.6v-16H-4.3z"/>
	<g>
	</g>
	<g>
		<path d="M-6.8-3.7h0.7v6.9h-0.7v1.5h3.7V3.2h-0.6v-6.9h0.5v-1.5h-3.5V-3.7z M-2.5-3.7h0.5L-3.5,0l1.7,3.2h-0.6v1.5h2.9V3.2h-0.6
			l-1.3-2.5l1.7-4.4h0.6v-1.5h-3.4V-3.7z"/>
		<path d="M1.1-3.7h0.7v6.9H1.1v1.5h3.2C6.6,4.6,8,3.5,8,1.5c0-1.9-1.1-3.1-3.8-3.1v-2.1H5v-1.5H1.1V-3.7z M4.1-0.1
			c0.6,0,1.3,0.1,1.3,1.6c0,1.4-0.7,1.6-1.3,1.6V-0.1z"/>
	</g>
</symbol>
<g>
	<defs>
		<path id="SVGID_1_" d="M280.6,141.7c0,76.7-62.2,138.9-138.9,138.9C65,280.6,2.8,218.4,2.8,141.7C2.8,65,65,2.8,141.7,2.8
			C218.4,2.8,280.6,65,280.6,141.7z"/>
	</defs>
	<clipPath id="SVGID_2_">
		<use xlink:href="#SVGID_1_"  style="overflow:visible;"/>
	</clipPath>
	<g style="clip-path:url(#SVGID_2_);">
		
			<use xlink:href="#Nouveau_symbole_15"  width="51" height="51" x="-25.5" y="-25.5" transform="matrix(7.7777 0 0 -7.7777 139.5206 139.7789)" style="overflow:visible;"/>
	</g>
	<use xlink:href="#SVGID_1_"  style="overflow:visible;fill:none;stroke:#F3EEBF;stroke-miterlimit:10;"/>
</g>
</svg>
